flaticon/stationery/pipette.svg

<svg xmlns="http://www.w3.org/2000/svg" width="32" height="32" viewBox="0 0 24 24">
    <path d="M 21.382812 0.457031 L 19.859375 1.984375 C 19.859375 1.984375 19.855469 1.984375 19.855469 1.984375 L 19.136719 1.261719 C 18.9375 1.066406 18.617188 1.066406 18.417969 1.261719 C 18.21875 1.460938 18.21875 1.785156 18.417969 1.984375 L 18.777344 2.34375 L 17.40625 3.714844 C 15.617188 2.488281 13.453125 1.765625 11.117188 1.765625 C 4.976562 1.765625 0 6.746094 0 12.882812 C 0 19.023438 4.976562 24 11.117188 24 C 17.257812 24 22.234375 19.023438 22.234375 12.882812 C 22.234375 10.550781 21.515625 8.382812 20.285156 6.59375 L 21.65625 5.222656 L 22.015625 5.582031 C 22.117188 5.679688 22.433594 5.886719 22.738281 5.582031 C 22.9375 5.382812 22.9375 5.0625 22.738281 4.863281 L 22.015625 4.140625 L 23.542969 2.617188 C 24.984375 0.914062 22.664062 -0.859375 21.382812 0.457031 Z M 14.210938 3.324219 C 15.066406 3.601562 15.878906 3.992188 16.632812 4.488281 L 14.644531 6.476562 C 14.277344 6.273438 13.894531 6.105469 13.5 5.96875 Z M 12.53125 11.46875 C 12.914062 11.855469 14.132812 12.640625 15.410156 11.46875 L 16.761719 10.117188 C 16.941406 10.484375 17.085938 10.863281 17.1875 11.25 C 17.476562 12.320312 17.480469 13.445312 17.195312 14.503906 C 16.914062 15.5625 16.347656 16.535156 15.5625 17.316406 C 13.996094 18.875 11.636719 19.519531 9.496094 18.949219 C 7.34375 18.371094 5.640625 16.667969 5.058594 14.5 C 4.769531 13.429688 4.765625 12.304688 5.050781 11.246094 C 5.335938 10.191406 5.898438 9.21875 6.683594 8.4375 C 8.25 6.875 10.613281 6.230469 12.75 6.800781 C 13.140625 6.90625 13.523438 7.050781 13.886719 7.230469 L 12.53125 8.589844 C 11.386719 9.847656 12.144531 11.085938 12.53125 11.46875 Z M 13.226562 3.0625 L 12.519531 5.703125 C 10.335938 5.28125 8.015625 5.914062 6.335938 7.367188 L 4.394531 5.429688 C 6.757812 3.304688 10.105469 2.390625 13.226562 3.0625 Z M 1.429688 10.277344 C 1.839844 8.742188 2.613281 7.324219 3.675781 6.148438 L 5.613281 8.085938 C 4.886719 8.925781 4.355469 9.917969 4.066406 10.984375 C 3.78125 12.054688 3.746094 13.179688 3.960938 14.269531 L 1.308594 14.976562 C 0.976562 13.429688 1.015625 11.8125 1.429688 10.277344 Z M 8.039062 22.425781 C 4.984375 21.4375 2.566406 19.019531 1.574219 15.960938 L 4.222656 15.25 C 4.957031 17.371094 6.632812 19.050781 8.746094 19.78125 Z M 9.019531 22.6875 L 9.730469 20.046875 C 11.910156 20.46875 14.230469 19.835938 15.910156 18.382812 L 17.851562 20.320312 C 15.488281 22.445312 12.140625 23.359375 9.019531 22.6875 Z M 20.820312 15.472656 C 20.40625 17.007812 19.632812 18.425781 18.570312 19.601562 L 16.632812 17.664062 C 17.363281 16.828125 17.894531 15.835938 18.179688 14.765625 C 18.464844 13.699219 18.503906 12.574219 18.289062 11.484375 L 20.9375 10.773438 C 21.269531 12.324219 21.230469 13.9375 20.820312 15.472656 Z M 20.671875 9.789062 L 18.023438 10.5 C 17.886719 10.109375 17.71875 9.730469 17.515625 9.363281 L 19.511719 7.367188 C 20.007812 8.125 20.394531 8.933594 20.671875 9.789062 Z M 14.6875 10.75 C 14.304688 11.132812 13.632812 11.132812 13.25 10.75 C 13.058594 10.558594 12.675781 9.882812 13.25 9.3125 L 19.496094 3.0625 L 20.9375 4.503906 Z M 22.824219 1.898438 L 21.296875 3.421875 L 20.578125 2.703125 L 22.105469 1.175781 C 22.449219 0.78125 23.324219 1.214844 22.824219 1.898438 Z M 22.824219 1.898438"/>
</svg>

<svg xmlns="http://www.w3.org/2000/svg" width="32" height="32" viewBox="0 0 24 24">
    <path d="M21.383.457l-1.524 1.527h-.004l-.718-.722a.514.514 0 0 0-.719 0c-.2.199-.2.523 0 .722l.36.36-1.372 1.37a11.083 11.083 0 0 0-6.289-1.948C4.977 1.766 0 6.746 0 12.883 0 19.023 4.977 24 11.117 24c6.14 0 11.117-4.977 11.117-11.117 0-2.332-.718-4.5-1.949-6.29l1.371-1.37.36.359c.101.098.418.305.722 0 .2-.2.2-.52 0-.719l-.722-.722 1.527-1.524c1.441-1.703-.879-3.476-2.16-2.16zM14.21 3.324c.855.278 1.668.668 2.422 1.164l-1.988 1.989a7.293 7.293 0 0 0-1.145-.508zm-1.68 8.145c.383.386 1.602 1.172 2.88 0l1.35-1.352c.18.367.325.746.427 1.133a6.239 6.239 0 0 1-1.625 6.066c-1.567 1.559-3.926 2.204-6.067 1.633A6.31 6.31 0 0 1 5.06 14.5a6.254 6.254 0 0 1-.008-3.254 6.282 6.282 0 0 1 1.633-2.809c1.566-1.562 3.93-2.207 6.066-1.636.39.105.773.25 1.137.43L12.53 8.59c-1.144 1.258-.386 2.496 0 2.879zm.696-8.406l-.707 2.64c-2.184-.422-4.504.211-6.184 1.664L4.395 5.43c2.363-2.125 5.71-3.04 8.832-2.367zM1.43 10.277a10.028 10.028 0 0 1 2.246-4.129l1.937 1.938a7.396 7.396 0 0 0-1.547 2.898 7.29 7.29 0 0 0-.105 3.286l-2.652.707a10.012 10.012 0 0 1 .12-4.7zm6.61 12.149a10.082 10.082 0 0 1-6.466-6.465l2.649-.711a7.345 7.345 0 0 0 4.523 4.531zm.98.262l.71-2.641c2.18.422 4.5-.211 6.18-1.664l1.942 1.937c-2.364 2.125-5.711 3.04-8.832 2.367zm11.8-7.215a10.08 10.08 0 0 1-2.25 4.129l-1.937-1.938a7.244 7.244 0 0 0 1.656-6.18l2.648-.71c.333 1.55.293 3.164-.117 4.699zm-.148-5.684l-2.649.711a7.374 7.374 0 0 0-.507-1.137l1.996-1.996c.496.758.883 1.567 1.16 2.422zm-5.985.961a1.043 1.043 0 0 1-1.437 0c-.191-.191-.574-.867 0-1.438l6.246-6.25 1.442 1.442zm8.137-8.852l-1.527 1.524-.719-.719 1.527-1.527c.344-.395 1.22.039.72.722zm0 0"/>
</svg>
